X:1
T:Saudades
T:Saudades
T:ao AntĨnio Menano
T:Paulo de Sġ
T:Fernandes Martins
C:Paulo de Sġ
Z:ao AntĨnio Menano
%%score { 1 | ( 2 3 4 ) }
L:1/8
Q:1/4=100
M:2/4
K:Eb
V:1 treble nm="Piano" snm="Pno."
V:2 bass 
V:3 bass 
V:4 bass 
V:1
S CE Gc | (3B/c/B/A FA | G=B df | (3e/f/e/d c=B | dc GE | CE Gc | GE CG, | A,C EA | DF G=B, || %9
[M:4/4] [E,C]6 z2!fine! |: c3 e Gc EG | FA- AF/A/ cf fe | (3d/e/d/=B- BB/d/ fg gd ||1 %13
 e3 (3d/e/d/ c2 z2 :| e3 (3d/e/d/ c3 =E | F z f3 d =BG | dc- cC/E/ Gc dc | %17
 (3=B/c/B/G- GG/G/ FG DF | E3 F G3 E | F z f3 d =BG | dc- cC/E/ Gc dc | =Bd dd cd =AB | G8!D.C.! |] %23
V:2
 C,,2 [E,G,C]2 | F,2 [A,C]2 | G,2 [=B,F]2 | G,2 [DF]2 | C,2 [E,G,C]2 | C,,2 [E,G,C]2 | %6
 E,,2 [C,E,]2 | A,,2 [E,A,]2 | G,,2 [D,F,G,]2 ||[M:4/4] z2 G,,4 z2 |: %10
 [C,,C,]2 [G,CE]2 [G,CE]2 [E,G,C]2 | [D,,D,]2 [F,A,CD]2 [F,A,CD]2 [F,A,CD]2 | %12
 [G,,G,]2 [G,DF]2 [G,DF]2 [G,DF]2 ||1 [C,,C,]2 [E,G,C]2 [E,G,C]2 [E,G,C]2 :| %14
 [C,,C,]2 [E,G,C]2 [E,G,C]2 [E,G,C]2 | [F,,F,]2 [A,CF]2 [A,CF]2 [A,CF]2 | %16
 [C,,C,]2 [E,G,]2 [E,G,C]2 [E,G,C]2 | G,,2 [F,G,=B,]2 [F,G,B,]2 [F,G,B,]2 | %18
 [C,,C,]2 [E,G,C]2 [E,G,C]2 [E,G,C]2 | [F,,F,]2 [A,CF]2 [A,CF]2 [A,CF]2 | %20
 [C,,C,]2 [E,G,]2 [E,G,C]2 [E,G,C]2 | [G,,G,]2 [G,=B,D]2 [^F,,^F,]2 [=A,CD]2 | %22
 [G,=B,D]2 [^F,,^F,]2 [=F,,=F,]2 [D,,D,]2 |] %23
V:3
 x4 | x4 | x4 | x4 | x4 | x4 | x4 | x4 | x4 ||[M:4/4] C,6 z2 |: x8 | x8 | x8 ||1 x8 :| x8 | x8 | %16
 x8 | x8 | x8 | x8 | x8 | x8 | x8 |] %23
V:4
 x4 | x4 | x4 | x4 | x4 | x4 | x4 | x4 | x4 ||[M:4/4] z2 z2 C,,2 z2 |: x8 | x8 | x8 ||1 x8 :| x8 | %15
 x8 | x8 | x8 | x8 | x8 | x8 | x8 | x8 |] %23

